X:1
T:Deux arabesques
T:Deux arabesques
T:I.
T:Claude Debussy (1862-1918)
T:II.
C:Claude Debussy (1862-1918)
%%score { ( 1 3 ) | ( 2 4 ) }
L:1/8
Q:1/4=116
M:4/4
K:E
V:1 treble nm="Piano" snm="Pno."
V:3 treble 
V:2 treble 
V:4 treble 
V:1
"^Andno con moto"!p![I:staff +1] (3(CEA[I:staff -1] (3cef (3gdB[I:staff +1] (3GDB,) | %1
 (3(A,CF[I:staff -1] (3Acd (3eBG[I:staff +1] (3EB,G,) |[I:staff -1] z2!<(! (c2 f2 c2-!<)! | %3
!mp! c2)!<(! (c2 f2 a2-!<)! | %4
!mf!!<(! a2 a4-[Q:1/4=60]"^\n"!f!!>(! (3agf)!<)!!>)![Q:1/4=92]"_rit." | %5
[Q:1/4=116]"^A tempo"!pp! z2 (3(efc (3eBc (3GBF | (3GEG D4 C2 | B,) z (3(efc (3eBc (3GBF | %8
 (3GEG D4 C2) |"^poco a poco cresc."!<(! (3(B,A,B, C2- CEDE!<)! | C2) (G4 E2) | (3(DCD E2- EGFG | %12
[Q:1/4=136]"^sempre cresc. e stringendo"!<(! E2) (c4 (3^AcA!<)! | G2) (e4 (3cec) | %14
[Q:1/4=138]"^144" (g3 f) (g3 f) | (g3 f)[Q:1/4=126]"^rit." !tenuto!g !tenuto!f2!mp! !tenuto!g | %16
!p![Q:1/4=116]"^(a tempo)"[I:staff +1] (3(CEA[I:staff -1] (3cef(3xdB[I:staff +1] (3GDB,) | %17
 (3(A,CF[I:staff -1] (3Acd(3xBG[I:staff +1] (3EB,G,) |!<(![I:staff -1] (d4 e2 g!mf!b)!<)! | %19
!>(! d4- d!>)!ceg | B4- BAce | G4[Q:1/4=100] (3z (Ac (3egf | %22
 d2 G2) z[Q:1/4=116]"_a Tempo"!<(! (FAc!<)! |!mp! E4)!p![Q:1/4=100] (3z (FA (3ce=d | G2 F4 =D2) | %25
[K:bass][Q:1/4=116]"^a Tempo"!p! (C8- | C2 C2 E2 C2) |[K:treble] F8- | %28
 F2[Q:1/4=132]"^cresc. e poco mosso"!<(! F2 A2 F2!<)! | B2 G2 (B2 G2 | [Ac]8- | %31
 [Ac]2 [FA]2 [GB]2 [Ac]2) | [Ac]8- | [Ac]2 (A2 B2!<(! c2 | d2 e2 f2 g2 | %35
 a2!<)!!>(! b2 c'2 d'2!>)! |!p! (f'4) e'4) | (e8- || %38
[K:A][Q:1/4=124]"^Tempo rubato""^(un peu moins vite)"!p! (3ede c2- cBBc | A2 F4 G2) | %40
!<(! (FE!<)!!mf!!>(! f4 e2)!>)! |!p!!<(! (FE!<)!!>(! g2- g!tenuto!b!tenuto!a!tenuto!f)!>)! | %42
!p! (3(ede c2- cBBc) | (A2 F2- F)!<(!(FFG)!<)! |!mf! (3(FEB,!>(! C4 E2)!>)! |!p! [B,E]6 z2 | %46
[K:bass]!p![Q:1/4=132]"^Mosso" (3(D,F,A, (3CB,A,)"_cresc."!<(! (3(G,B,D (3FED)!<)! | %47
[K:treble] (3(CEG (3BAG) (3(FAc (3edc) | (3(Bdf!f! !>!a2- ag)(fe) | %49
 (fedc)[Q:1/4=104]"^Rit."!>(! (dcBA)!>)! | %50
[Q:1/4=132]"^Mosso"!p! (3(D,F,A, (3CB,A,)"_cresc."!<(! (3(G,B,D (3FED)!<)! | %51
[K:treble] (3(CEG (3BAG) (3(FAc (3edc) |!<(! (3(Bdf!<)!!f! a2- agfg) | %53
!mp!!<(! (3(Bdf!<)!!f! a2- agfg) |[Q:1/4=124]"^A tempo"!p! (3(ede c2- cBBc | A2 ^F4 G2) | %56
!<(! (FE!<)!!mf!!>(! f4 e2)!>)! |!p!!<(! (FE!<)!!>(! g2- g!tenuto!b!tenuto!a!tenuto!f)!>)! | %58
!p! (3(ede c2- cBBc | A2 G2- GFFG) | (3(FEB, [A,C]4 [A,CE]2 | [B,E]6) z2 | %62
[Q:1/4=100]"^Risoluto"!f! (3=G=FG [A,=CE]4 [=F,B,D]2 | =C2 =G,4 C2 | %64
!<(! [=F,B,D]2 [A,=C=F]2 [=G,C=G]2 A=c!<)! | [Bd]4 =G4 | %66
[Q:1/4=92]"^dim. molto e rit."!>(! (3=g=fg e4 d2!>)! | e4 =f4 | (3=g=fg e4 g2 | %69
[Q:1/4=80]"^più dim."!>(!!<(! (3^g^fg!<)! e4 g2!>)! || %70
[K:E]!p![Q:1/4=116]"^1o tempo"[I:staff +1] (3(CEA[I:staff -1] (3cef(3xdB[I:staff +1] (3GDB,) | %71
 (3(A,CF[I:staff -1] (3Acd(3xBG[I:staff +1] (3EB,G,) |[I:staff -1] z2!<(! (c2 f2 c2-!<)! | %73
 c2)!<(! (c2 f2 a2-!<)! | %74
!mf!!<(! a2 a4-[Q:1/4=60]"^\n"!f![Q:1/4=92]"_rit."!>(! (3a!<)!!tenuto!g!tenuto!f)!>)! | %75
[Q:1/4=116]"^A tempo" z2 (3(efc (3eBc (3GBF | (3GEG D4 C2 | B,) z (3(efc (3eBc (3GBF | %78
 (3GEG D4 C2) |"_poco a poco cresc."!<(! (3(B,A,B, C2- CEDE!<)! |!mp! C2) (G4 E2) | %81
 (3(DCD E2- EGFG | E2) (c4 (3^AcA | %83
[Q:1/4=136]"^stringendo e sempre cresc."!<(! G2) (e4 (3cec)!<)! | (g3 f) (g3 f) | %85
 (g3 f)[Q:1/4=126]"^Rit." !tenuto!g !tenuto!f2!mf! !tenuto!g | %86
!p![Q:1/4=116]"^a tempo"[I:staff +1] (3(CEA[I:staff -1] (3cef(3xdB[I:staff +1] (3GDB,) | %87
 (3(A,CF[I:staff -1] (3Acd(3xBG[I:staff +1] (3EB,G,) |[I:staff -1] (a2 bc'!<(! agag- | %89
 g2 f4 e2-!<)! |!mp! e=def dcdc- | c2 B4 A2-) | (AGAG cA F2- |[M:2/4]!<(! F)E FE!<)! | %94
[M:4/4]!mf!"^dim."!>(! A8!>)! | x8 |"^più dim."!mp!!>(! G8!>)! | %97
[I:staff +1] (3(B,,,B,,D, (3A,B,[I:staff -1]D (3ABd (3abB | E2)!p! (3(e'f'c' (3e'bc' (3gbf | %99
 (3geg d4 c2 | B2)!pp! (3(efc (3eBc (3GBF | (3GEG D4 C2) | %102
 (3z (B,[I:staff +1]E,[I:staff -1] (3z C[I:staff +1]G,[I:staff -1] (3z E[I:staff +1]B,[I:staff -1] (3z FC) | %103
!<(! (3z (BE (3z cG (3z eB (3z fc)!<)! |!p! (3z (be!>(! (3z c'g (3z e'b (3z f'c')!>)! | %105
!pp! (!tenuto![e'g']2 !tenuto![e'g']4 !tenuto![e'g']2) | E2 z2 z4 |] %107
[K:G][M:4/4][Q:1/4=138]"^Allegretto scherzando" (3(e/f/e/).A (3(a/b/a/).d (3(e/f/e/).A (3(a/b/a/).d | %108
 (3(e/f/e/).B"_dim."!>(! (3(b/c'/b/).d (3(e/f/e/).B (3(b/c'/b/).d!>)! | %109
 (3(e/f/e/).c (3(c'/d'/c'/).d (3e/f/e/.c (3(c'/d'/c'/).d | %110
 (3(e/f/e/).c (3(c'/d'/c'/).d (3e/f/e/.c (3(c'/d'/c'/).d | %111
!pp! (3(e/f/e/).B (3(d/e/d/).G (3(B/c/B/).D (3(A/B/A/).E | %112
 (3(e/f/e/).B (3(d/e/d/).G (3(B/c/B/).D (3(A/B/A/).E | %113
!<(! (3(G/A/G/).D (3.E.G.B!<)!!<(! (3(G/A/G/).D (3.E.G.B!<)! | %114
!mp!!<(! (3(G/A/G/).D (ed)!<)!!>(! (ba) .f.d!>)! | %115
!pp! (3(e/f/e/).B (3(d/e/d/).G (3(B/c/B/).D (3(A/B/A/).E | %116
!pp! (3(e/f/e/).B (3(d/e/d/).G (3(B/c/B/).D (3(A/B/A/).E | %117
!<(! (3(G/A/G/).D (3.E.G.B!<)!!mp! !>![EA]2 z z | %118
!p!!<(! (3(G/A/G/).D (3.E.G.B!<)!!mp! !>![EA]2 z z | %119
!mf! (3(a/b/a/).f (3(d/e/d/).B!>(! (3(A/B/A/).F (3(D/E/D/).B,!>)! | %120
!p! .A,!>(!.D.B,.[^CF] .[A,D] z z2!>)! | %121
[K:bass] (3(G,/A,/G,/).E,[K:treble]!mf! (3(G/A/G/)E- E!>(!.F.G.A!>)! | %122
!p!!<(! !tenuto![CDFB].c.d!<)!!mp!.e!>(! !tenuto![Bdf]{/f}.a.g!>)!.d | %123
[K:bass] (3(G,/A,/G,/).E,[K:treble]!mf! (3(G/A/G/)E- E!>(!.F.G.A!>)! | %124
!p!!<(! !tenuto![CDFB].c.d!<)!!mp!.e!>(! !tenuto![Bdf]{/f}.a.g!>)!.d |!p! (a2 g2) (a2 g2) | %126
 (a2 g4 d2) |!p! (b2 a2) (b2 a2) | (b2 a4 e2) | %129
!f! (3(d'/e'/d'/).b (3(g/a/g/).e (3(d/e/d/).B (3(G/A/G/).E | %130
 (3(d'/e'/d'/).b (3(g/a/g/).e (3(d/e/d/).B (3(G/A/G/).E | %131
"_dim."!>(! (3(D/E/D/).B, z2[K:bass] (3(D,/E,/D,/).B,, z2!>)! |"_molto dim." z4 .D,.E,.G,.B, | %133
[K:treble]!p! D z z2!pp! !arpeggio![D^FAd] z z2 | %134
 !>![GBdg]!f! (3(F/G/F/) !>!E(3(D/E/D/) !>!B,!>!D !>!E2- | E.A.c.e .F.A.d.f | %136
 !>![GBdg]!f! (3(F/G/F/) !>!E(3(D/E/D/) !>!B,!>!D !>!E2- | E.A.c.e z!<(! .A.e.f!<)! | %138
!f! !>![B^dfb] (3(^a/b/a/) .^g(3(f/g/f/) .d.f !>![Bdg]2 | %139
 !>![B^dfb] (3(^a/b/a/) .^g(3(f/g/f/) .d.f !>![Bdg]2 | %140
 !>![^dfb] z !>![dfb] z z2"_dim."!>(! [ceac'] z!>)! | %141
 [=dfad'] z [dfad'] z z!p! (3(C/D/C/) .B,(3(A,/B,/A,/) |!pp! .G, z .G, z z2 !arpeggio!.[GBdg] z | %143
 z4 z2[K:bass]!p! (!tenuto!G,2- | (3G,A,B, A,2-) A,.C.B,.D |!<(! .C.E.D.=F .E.G.F.A!<)! | %146
!mp!!>(! .G.E.=F.D .E.C.D.B,!>)! |!p! (A,C) .B, z !tenuto![G,B,]4 | %148
[K:treble]!<(! (3(B,CD)!<)!!mp! C2-!>(! (C.G).E!>)!!p!.C | %149
!<(! (3(B,CD)!<)!!mp! C2-!>(! (C.G).E!>)!!p!.C | %150
 .[A,D].[B,E].[C=F].[DG]!<(! .[EA].[FB].[Gc].[Ad]!<)! | %151
!mp! .[Be].[c^f].[cf].[cf] .[B^db]!mp!.[Bdb].[Bdb].[Bdb] | (3gab a2- a.c'.b.d' | %153
 .c'.e'!<(!.d'.=f' .e'.g'.f'.a'!<)! |!mf! (g'e')!>(!(=f'd') (e'c')(d'b)!>)! | %155
!p! (ac' .[=fb]) z !tenuto!b4 |!<(! (3(B,^C^D C2- C!<)!!mp!FDC) | (3(B,^C^D C2- CFDC) | %158
!<(! (B,E)(^CF) (^D^G)(EA) | (FB)(^G^c) (A^d)(c!<)!!mf!d) |!p! (3(B,^C^D C2- CFDC) | %161
 (3(B,^C^D C2- CFDA,) | (_B,_E)(=C=F) (=D=G)(E_A) |!<(! (=F_B)(Gc) (_Ad)(c!mf!=f)!<)! | %164
"_dim. molto"!>(! (3(_e/=f/e/)._B ._d.G .e.B.d.G!>)! | (3(_e/=f/e/)._B ._d.G .e.B.d.G | %166
 (3(_e/=f/e/)._B ._d.G .e.B.d.G | (3(_e/=f/e/)._B ._d.G .e.B.d.G | %168
!p![Q:1/4=138]"^a Tempo\n" (3(=e/f/e/).B .d.G (3(B/c/B/).D .A.E | %169
 (3(=e/f/e/).B .d.G (3(B/c/B/).D .A.E | (3(G/A/G/).D (3.E.G.B (3(G/A/G/).D (3.E.G.B | %171
!mp!!<(! (3(G/A/G/).D (ed)!<)!!>(! (ba) .f.d!>)! |!p! (3(=e/f/e/).B .d.G (3(B/c/B/).D .A.E | %173
 (3(=e/f/e/).B .d.G (3(B/c/B/).D .A.E |!<(! (3(G/A/G/).D (3.E.G.B!<)!!mp! !>![EA]2 z z | %175
!p! (3(G/A/G/).D (3.E.G.B!mp! !>![EA]2 z z |!mf! (3(a/b/a/).f .d.B (3(A/B/A/).F .D.B, | %177
!p! .A,!>(!.D.B,.[^CF] .[A,D] z z2!>)! | %178
[K:bass]!mf! (3(A,/B,/A,/).F,[K:treble] (3(A/B/A/)D-!p! DE=FG |!<(! (ABce) (!>!de=fa)!<)! | %180
[K:bass]!mf! (3(A,/B,/A,/).F,[K:treble] (3(A/B/A/)D-!p!!<(! DE=FG | .A.B.c.e!<)! .d.e.=f.a | %182
"_en diminuant"!>(! (3(g/a/g/).e[I:staff +1] .c.[EG] .[^D^F].B[I:staff -1].^d.f!>)! | %183
 (3(g/a/g/).e[I:staff +1].c.[EG] .[^DF].B[I:staff -1].^d.f | %184
 (3(e/f/e/).c[I:staff +1].A.[CE] .[B,D].^G[I:staff -1].B.d | %185
 (3(e/f/e/).c[I:staff +1].A.[CE] .[B,D].G[I:staff -1].B.d | %186
"^più dim."!mp!!>(![I:staff +1] (CF)[I:staff -1].A.d[I:staff +1] (CE)[I:staff -1].G.d!>)! | %187
[I:staff +1] (CD)[I:staff -1].A.d[I:staff +1] (D,D)[I:staff -1].D.d | %188
[Q:1/4=116]"^Meno mosso"!pp! (3(e'/f'/e'/)b- b z (3(d'/e'/d'/)g- g z | %189
 (3(b/c'/b/)d- d z (3(a/b/a/)e- e z | (3(e'/f'/e'/)b- b z (3(d'/e'/d'/)g- g z | z2 .d z .g z .b z | %192
 (3(d'/e'/d'/)a- a z (3(c'/d'/c'/)=f- f z | (3(a/_b/a/)c- c z (3(g/a/g/)d- d z | %194
 (3(d'/e'/d'/)a- a z (3(c'/d'/c'/)=f- f z | z2 .c z .=f z .a !fermata!z | %196
!pp![Q:1/4=138]"^a Tempo\n" z8 |[K:bass]!pp! z .A,,.=F,,._B,, .G,,.C,.A,,.D, | %198
 (3(C,D,E,) D,2- D,.G,.E,.D, | .C,.=F,.D,.G, .E,.A,.F,._B, | %200
[K:treble]"_cresc."!<(! (3([G,C]DE) [A,D-]2 [_B,D]G[=B,E]D!<)! | (3(CDE) D2- DGEA | %202
!mp!"_più cresc." ^F=B!<(!Gc AdBe!<)! |"_molto cresc." GcAd Becf | (df) (eg) (fa) (gb) | %205
 (ac')[Q:1/4=124]"_Rit." (bd') (c'e') (d'f') | %206
[Q:1/4=138]"^a Tempo\n" !>![gbd'g'] (3(F/G/F/) !>!E(3(D/E/D/) .B,.D !>!E2- | E.A.c.e .F.A.d.f | %208
 [GBdg] (3(F/G/F/) !>!E(3(D/E/D/) .B,.D !>!E2- | E.A.c.e z!<(! .A.e.f!<)! | %210
!f! !>![B^dfb] (3(^a/b/a/) .^g(3(f/g/f/) !>!d!>!f !>![Bdg]2 | %211
!f! !>![B^dfb] (3(^a/b/a/) .^g(3(f/g/f/) df !>![Bdg]2 | %212
 !>![^dfb] z !>![dfb] z z2"_dim."!>(! [ceac'] z!>)! | %213
 [=dfad'] z [dfad'] z z!p! (3(C/D/C/ B,)(3(A,/B,/A,/ |!pp! G,) z .G, z z2 !arpeggio![GBdg] z | %215
 [GBdg] z z2!ppp! G, z z2 | G, z z2 z4 |] %217
V:2
 x8 | x8 |[K:bass] F,4 E,4 | D,4 C,4 | (3(B,,F,A, (3C[K:treble]DF (3Acd (3cBA) | %5
[K:bass] (E,,B,,E,G, B,G,E,B,,) | (E,,C,E,G, CG,E,C,) | (E,,B,,E,G, B,G,E,B,,) | %8
 (E,,C,E,G, CG,E,C,) | (F,,C,E,F, A,F,E,C,) | (G,,C,E,G, B,G,E,C,) | (A,,E,F,A, CA,F,E,) | %12
 (^A,,E,G,C) (C,F,^A,E) | (E,^A,CG) (F,CE^A) |[K:treble] (^A,EGc) (CF^Ae) | (^A,EGc) (CF^Ae) | x8 | %17
 x8 | (3(^^F,CD (3^ADC) (3(G,CE (3BEC) | (3(^^F,CD (3^ADC)[K:bass] (3(E,A,C (3GCA,) | %20
 (3(D,A,B, (3FB,A,) (3(C,F,A, (3EA,F,) | (3(^B,,F,G, (3DG,F,)!p! (3(C,F,A, (3EA,F,) | %22
 (3^B,,F,G, (3DG,F, (3=B,,F,A, (3DA,F, | (3B,,E,G, (3=DG,E, (3B,,F,A, (3DA,F, | %24
 (3B,,E,G, (3=DG,E, (3E,,B,,E, (3F,G,B, | (3(A,,,A,,[I:staff -1]E, (3=G,A,B, (3A,E,G, (3A,B,A,) | %26
[I:staff +1] x8 | (=D,,A,, F,6) | (B,,,B,,F,A, B,2) z2 | (G,,,G,,E,G, B,2) z2 | %30
 (3(F,,,F,,C, (3E,F,A, (3C[I:staff -1]EF (3AGF | (E4)[I:staff +1] D2 C2) | %32
 (3(F,,,F,,C, (3E,F,A, (3C[I:staff -1]EF (3AGF | E4)[I:staff +1] F,4 | (.B,,2 .F,2 .A,2 .B,2 | %35
 .D2[K:treble] .F2 .A2 .B2) |[K:bass] (E,,,E,,B,,E, G,B,EG) | z4 E4 ||[K:A] F6 D2 | %39
 [F,C]2 [B,,A,]6 | x2 (F4 E2) | ([A,,E,]2 [E,A,CE]6) | (F6 =F2) | ([F,C]2 [B,,A,]4 [A,,^D,]2) | %44
 ([G,,E,]2 [F,,E,]4 [B,,,B,,]2 | [E,,B,,]4) (E,,2 E,2) | z2 (F,,4 E,,2) | %47
 z2 ([A,,,A,,]4 [D,,D,]2) | z2 ([B,,,B,,]2 [F,B,DF]2) [E,,E,]2 | [A,,,A,,]2 E,2 (FEDC) | %50
 z2 (F,,4 E,,2) | z2 ([A,,,A,,]4 [D,,D,]2) | z2 [B,,,B,,] z !>![F,B,DF]4 | %53
 z2 [D,,D,] z !>![F,B,DF]4 | (E,4 F,2 G,2 | [A,C]4 [B,,A,]4) | x2 (F4 E2) | ([A,,E,]2 [E,A,CE]6) | %58
 (F6 =F2) | ([^F,C]4 [B,,A,]2 [A,,^D,]2) | ([G,,E,]2 [F,,E,]4 [B,,,B,,]2) | [E,,B,,]4 (E,,2 E,2) | %62
 [E,,=C,]2 [=F,,C,]4 =G,,2 | A,,2 B,,4 A,,2 | =G,,2 =F,,2 E,,2 [D,,D,]2 | %65
!ff! =G,,,=G,,D,=F, =G,B,D=F |[K:treble] ([E=G]4 [=FA]4 | [=G_B]4 [=FA]4) | =G8 | ^G8 ||[K:E] x8 | %71
 x8 |[K:bass] F,4 E,4 | D,4 C,4 | (3(B,,F,A, (3C[K:treble]DF (3Acd (3c!tenuto!B!tenuto!A) | %75
[K:bass] (E,,B,,E,G, B,G,E,B,,) | (E,,C,E,G, CG,E,C,) | (E,,B,,E,G, B,G,E,B,,) | %78
 (E,,C,E,G, CG,E,C,) | (F,,C,E,F, A,F,E,C,) | (G,,C,E,G, B,G,E,C,) | (A,,E,F,A, CA,F,E,) | %82
 (^A,,E,G,C) (C,F,^A,E) | (E,^A,CG) (F,CE^A) |[K:treble] (^A,EGc) (CF^Ae) | (^A,EGc) (CF^Ae) | x8 | %87
 x8 |(3(xEA (3cAE)(3(xDG (3BGD) |(3(xCF (3AFC)(3(xB,E (3GEB,) | %90
[K:bass](3(xA,=D (3FDA,)(3(xG,C (3ECG,) |(3(xF,B, (3=DB,F,)(3(xE,A, (3CA,E,) | %92
(3(x^E,G, (3B,G,E,)(3(xC,F, (3A,F,C,) |[M:2/4](3(xB,,E, (3G,E,B,,) | %94
[M:4/4] (3(F,,C,E, (3F,A,B, (3C[I:staff -1]EA (3Bce | (3abc' (3e'c'b (3aec (3BAE) | %96
[I:staff +1] (3(B,,,B,,D, (3G,B,[I:staff -1]D (3GBd (3gbB | F8) | %98
[I:staff +1] (E,,B,,E,G, B,G,E,B,,) | (E,,C,E,G, CG,E,C,) | (E,,B,,E,G, B,G,E,B,,) | %101
 (E,,C,E,G, CG,E,C,) | (E,,2 B,,2 E,2 G,2) | (E,2 B,2 E2 G2) |[K:treble] (E2 B2 e2 g2) | %105
 (!tenuto![eb]2 !tenuto![eb]4 !tenuto![eb]2) |[K:bass] [E,,E,]2 z2 z4 |] %107
[K:G][M:4/4][K:treble]!p! ([CDF]8 | [B,DF]8 | [A,DF]8 |[K:bass] D,8) | %111
 [G,,D,B,]2- [G,,D,B,] z z2 .[C,G,] z | [G,,D,B,]2- [G,,D,B,] z z2 .[C,G,] z | %113
 .[B,,G,] z .[C,G,] z .[B,,G,] z .[C,G,] z | %114
 [^C,G,A,] z !arpeggio![D,CF] z[K:treble] !arpeggio![DAc] z z2 | %115
[K:bass] [G,,D,B,]2- [G,,D,B,] z z2 .[C,G,] z | [G,,D,B,]2- [G,,D,B,] z z2 .[C,G,] z | %117
 .[B,,G,] z .[C,G,] z !arpeggio![^C,G,A,][K:treble] .E.A[I:staff -1]!arpeggio![ea] | %118
[I:staff +1][K:bass] .[B,,G,] z .[C,G,] z !arpeggio![^C,G,A,][K:treble]!<(! .E.A[I:staff -1]!arpeggio![ea]!<)! | %119
[I:staff +1] [FAd] z [EGB] z[K:bass] [F,A,D] z [E,G,B,] z | F,2 G,A, .F,.D,.A,,.D,, | %121
 [A,,,A,,] z [A,,E,]2- [A,,E,] z z2 | [D,,D,] z z2 [G,,,G,,] z [D,G,B,D] z | %123
 [A,,,A,,] z [A,,E,]2- [A,,E,] z z2 | [D,,D,] z z2 [G,,,G,,] z [D,G,B,D] z | %125
[K:treble] (3(=F/G/F/).D .F.E (3(F/G/F/).D .F.E | (3(=F/G/F/).D .F.E .F.D.E.F | %127
 (3(G/A/G/).E .G.F (3(G/A/G/).E .G.F | (3(G/A/G/).E .G.F .G.A.B.^c | %129
 [DGBd] z z2 z2[K:bass] !arpeggio![D,G,A,C] z | %130
[K:treble] [DGBd] z z2 z2[K:bass] !arpeggio![D,G,A,C] z | %131
 z2 (3(G,/A,/G,/).E, z2 (3(G,,/A,,/G,,/).E,, |!>(! .D,,.E,,.G,,.B,, z4!>)! | %133
 z4 !arpeggio![D,C] z z2 | [G,,,G,,] z z2 G,4 | [G,A,C]4 [A,CD]4 | [G,,,G,,] z z2 G,4 | %137
 [G,A,C]4 [CEF]4 |[K:treble] !>![B,^DF]2 z2 z2 !>![^G,B,D^G]2 | !>![B,^DFB]2 z2 z2 !>![^G,B,D^G]2 | %140
 !>![B,^DFB] z !>![B,DFB] z z2 [A,CEA] z | %141
 [=DFAc] z [DFAc] z[K:bass] z .[C,,C,].[B,,,B,,].[A,,,A,,] | %142
 .[G,,,G,,] z .[G,,,G,,] z z2 !arpeggio!.[D,G,B,D] z | z2 [G,,,G,,] z z4 | =F,6 F,2 | %145
 =F,2 F,4 F,2- | F,2 =F,4 F,2- | F,2 =F, z [D,F,]4 | [=F,A,]2 [E,G,]6 | [=F,A,]2 [E,G,]6 | %150
 .=F,.G,.A,.B, .C.D.E.=F |[K:treble] .G.A.A.A .[B,^FA].[B,FA].[B,FA].[B,FA] | %152
 [D=FG]2 [EFG]4 [DFG]2 | .[C=FG]2 .[B,FG]2 .[A,FG]2 .[G,FG]2 | .[A,=FG]2 .[B,FG]2 .[CFG]2 .[DFG]2 | %155
 [E=FG]2 [DFG] z [DFG]4[K:bass] | B,,8 | (^G,2 A,2 F,2 ^^F,2) | (^G,2 A,2 B,2 ^C2 | %159
 ^D2 E2 F2 ^^F2) | B,,8 | (^G,2 A,2 F,4) | (G,2 _A,2 _B,2 C2) |[K:treble] (D2 _E2 =F2 _A2) | %164
 ([_EG]8 | _B,8 |[K:bass] _E,8 | _B,,4 _E,,4) | !arpeggio![G,,D,=B,]2- [G,,D,B,] z z2 .[C,G,] z | %169
 !arpeggio![G,,D,=B,]2- [G,,D,B,] z z2 .[C,G,] z | .[B,,G,] z .[C,G,] z .[B,,G,] z .[C,G,] z | %171
 [^C,G,A,] z !arpeggio![D,CF] z[K:treble] !arpeggio![DAc] z z2 | %172
[K:bass] !arpeggio![G,,D,=B,]2- [G,,D,B,] z z2 .[C,G,] z | %173
 !arpeggio![G,,D,=B,]2- [G,,D,B,] z z2 .[C,G,] z | %174
 .[B,,G,] z .[C,G,] z !arpeggio![^C,G,A,][K:treble] .E.A[I:staff -1]!arpeggio![ea] | %175
[I:staff +1][K:bass] .[B,,G,] z .[C,G,] z !arpeggio![^C,G,A,][K:treble]!<(! .E.A[I:staff -1]!arpeggio![ea]!<)! | %176
[I:staff +1] [FAd] z [EGB] z[K:bass] [F,A,D] z [E,G,B,] z | F,2 G,A, .F,.D,.A,,!pp!.D,, | %178
 [=F,,,=F,,] z z2 (=F,4- | [F,C]4 !>![B,=FA]2) z2 | [=F,,,=F,,] z z2 (=F,4- | %181
 [F,C]4 !>![B,=FA]2) z2 |[K:treble] x8 | x8 | x8 | x8 |[K:bass] A,2 z2 G,2 z2 | F,2 z2 D,2 z2 | %188
 z2 (.D,.G, .B,) z[K:treble] (.D.E | .G z .B) z [DGAc]4 |[K:bass] z2 (.D,.G, .B, z[K:treble] .D.G | %191
 B) z z2 z4 |[K:bass] z2 (.C,.=F, .A,) z[K:treble] (.C.D | .=F z .A) z [CFGB]4 | %194
[K:bass] z2 (.C,.=F, .A, z .C.=F | A) z z2 z4 | (3(C,,D,,E,,) D,,2- D,,.G,,.E,,.D,, | %197
 .C,,2 .D,,2 .E,,2 .=F,,2 | .E,,2 .=F,,2 .G,,2 ._B,,2 | .A,,2 ._B,,2 .C,2 .D,2 | %200
 .E,2 .=F,2 .G,2 .^G,2 | A,2 _B,2 =B,2 C2 |[K:treble] (D2 E2 F2 G2) | (E2 F2 G2 A2) | %204
 ([CD]2 [B,D]2 [A,D]2 [G,D]2 |[K:bass] [F,D]2 [E,D]2 [E,D]2 [D,CD]2) |!f! [G,,,G,,] z z2 (G,4 | %207
 [G,A,D]4 [A,CD]4) | [G,,,G,,] z z2 G,4 | [G,A,C]4 [CEF]4 | %210
[K:treble] !>![B,^DF]2 z2 z2 !>![^G,B,D^G]2 | !>![B,^DFB]2 z2 z2 !>![^G,B,D^G]2 | %212
 !>![B,^DFB] z !>![B,DFB] z z2 [A,CEA] z | %213
 [=DFAc] z [DFAc] z[K:bass] z .[C,,C,].[B,,,B,,].[A,,,A,,] | %214
 .[G,,,G,,] z .[G,,,G,,] z z2 !arpeggio![D,G,B,D] z | [D,G,B,D] z z2 [G,,,G,,] z z2 | %216
 [G,,,G,,] z z2 z4 |] %217
V:3
 x8 | x8 | x2 (3cFA- A2 (3cFA- | A2 (3cFA- A2 (3aAc | x8 | x8 | x8 | x8 | x8 | x8 | x8 | x8 | x8 | %13
 x8 | x8 | x8 | (=a4 g4 | f4 e4) | x8 | x8 | x8 | x8 | x8 | x8 | x8 |[K:bass] x8 | =G,8 | %27
[K:treble] z2 (3(A,B,C (3B,A,B, (3CB,A, | C4) ^D4- | D4 E4 | x8 | x8 | x8 | x2 (3FCE (3GDF (3AEG | %34
 (3BFA (3cGB (3dAc (3eBd | (3fc!mf!e (3gdf (3aeg (3bfa | [gb]8 | z8 ||[K:A] A6 G2 | F2 ^D6 | %40
 [G,=D]2 [Bd]6 | [A,C]2 [Ac]6 | A6 G2 | E4 ^D2 C2 | B,2 A,4 [A,C]2 | (A,2 G,4) x2 |[K:bass] x8 | %47
[K:treble] x8 | x4 [Bd]2 [Gd]2 | [Ac]4 A4 | x8 |[K:treble] x8 | x4 [Bd]4 | x4 [Bd]4 | G4 F2 =F2 | %55
 E4 ^D4 | [G,=D]2 [Bd]6 | [A,C]2 [Ac]6 | A6 G2 | E4 ^D2 C2 | B,2 x6 | (A,2!<(! G,4) x2!<)! | %62
 [=G,=C]2 x6 | x8 | x6 [=C=F]2 | =F8 | =c8- | c8 | =c8- | c4 ^c4 ||[K:E] (a4 g4 | f4 e4) | %72
 x2 (3cFA- A2 (3cF!mp!A- | A2 (3cFA- A2 (3aAc | x8 | x8 | x8 | x8 | x8 | x8 | x8 | x8 | x8 | x8 | %84
 x8 | x8 | (=a4 g4 | f4 e4) | z2 e2 z2 d2 | c4 B4 | z2 A2 z2 G2 | F4 E4 | =D4 C4 |[M:2/4] B,4 | %94
[M:4/4] A8 | x8 | x8 | x8 | x8 | x8 | x8 | x8 | x8 | x8 | x8 | x8 | x8 |][K:G][M:4/4] x8 | x8 | %109
 x8 | x8 | x8 | x8 | x8 | x2 [Ac] x !arpeggio![dfb] x3 | x8 | x8 | x8 | x8 | x8 | x8 | %121
[K:bass] x2[K:treble] C2- C x3 | x8 |[K:bass] x2[K:treble] C2- C x3 | x8 | [Bd]4 [Bd]4 | [Bd]8 | %127
 [^ce]4 [ce]4 | [^ce]8 | x8 | x8 | x4[K:bass] x4 | x8 |[K:treble] x8 | x8 | x8 | x8 | x8 | x8 | %139
 x8 | x8 | x8 | x8 | x6[K:bass] x2 | G,6 G,2- | G,2 G,4 G,2- | G,2 G,4 G,2- | G,2 G, x5 | %148
[K:treble] x8 | x8 | x8 | x8 | B2 c4 d2 | e2 =f2 g2 a2 | g2 =f2 e2 d2 | c2 B z B4 | x4 A,2 ^A,2 | %157
 x4 A,2 ^A,2 | x8 | x4 A2 ^A2 | x4 A,2 ^A,2 | x4 A,2 x2 | x8 | x8 | x8 | x8 | x8 | x8 | x8 | x8 | %170
 x8 | x2 [Ac] x !arpeggio![dfb] x3 | x8 | x8 | x8 | x8 | x8 | x8 |[K:bass] x2[K:treble] x6 | x8 | %180
[K:bass] x2[K:treble] x6 | x8 | x8 | x8 | x8 | x8 | x8 | x8 | x8 | x8 | x8 | x8 | x8 | x8 | x8 | %195
 x8 | x8 |[K:bass] x8 | x8 | x8 |[K:treble] x8 | x8 | x8 | x8 | [FA]2 [GB]2 [Ac]2 [Bd]2 | %205
 [ce]2 [df]2 [eg]2 [fa]2 | x8 | x8 | x8 | x8 | x8 | x8 | x8 | x8 | x8 | x8 | x8 |] %217
V:4
 x8 | x8 |[K:bass](3xA,C- C2(3xA,C- C2 |(3xA,C- C2(3xA,E- E2 | x8/3[K:treble] x16/3 |[K:bass] x8 | %6
 x8 | x8 | x8 | x8 | x8 | x8 | x8 | x8 |[K:treble] x8 | x8 | x8 | x8 | x8 | x4[K:bass] x4 | x8 | %21
 x8 | x8 | x8 | x8 | (3:2:2x A,,2- A,,6- | A,,8 | x8 | x8 | x8 | x8 | x8 | x8 | x8 | x8 | %35
 x2[K:treble] x6 |[K:bass] x8 | x8 ||[K:A] B,C D4 E,2 | x8 | ([E,,B,,]2 [G,D]6) | x8 | (B,C D6) | %43
 x8 | x8 | x8 | x8 | x8 | x8 | x8 | x8 | x8 | x8 | x8 | D8 | x8 | ([E,,B,,]2 [G,D]6) | x8 | %58
 (B,C D6) | x8 | x8 | x8 | x8 | [E,A,]2 [D,=F,]4 [E,A,]2 | x8 | x8 |[K:treble] x8 | x8 | (E8- | %69
 E6- E^D) ||[K:E] x8 | x8 |[K:bass](3(xA,C- C2(3(x)A,C- C2 |(3(x)A,C- C2(3(x)A,E- E2) | %74
 x8/3[K:treble] x16/3 |[K:bass] x8 | x8 | x8 | x8 | x8 | x8 | x8 | x8 | x8 |[K:treble] x8 | x8 | %86
 x8 | x8 | (C4 B,4 | A,4 G,4) |[K:bass] (F,4 E,4 | =D,4 C,4) | (B,,4 A,,4 |[M:2/4] G,,4) | %94
[M:4/4] x8 | x8 | x8 | x8 | x8 | x8 | x8 | x8 | x8 | x8 |[K:treble] x8 | x8 |[K:bass] x8 |] %107
[K:G][M:4/4][K:treble] x8 | x8 | x8 |[K:bass] x8 | x8 | x8 | x8 | x4[K:treble] x4 |[K:bass] x8 | %116
 x8 | x5[K:treble] x3 |[K:bass] x5[K:treble] x3 | x4[K:bass] x4 | A,,4 x4 | x8 | x8 | x8 | x8 | %125
[K:treble] x8 | x8 | x8 | x8 | x6[K:bass] x2 |[K:treble] x6[K:bass] x2 | x8 | x8 | x8 | x4 D,4- | %135
 D,8 | x4 D,4- | D,4 C4 |[K:treble] x8 | x8 | x8 | x4[K:bass] x4 | x8 | x8 | D,2 E,4 D,2 | %145
 C,2 B,,2 A,,2 G,,2 | A,,2 B,,2 C,2 D,2 | (E,2 D,) z z2 G,, z | x4 G,, z G,,, z | x4 G,, z G,,, z | %150
 x8 |[K:treble] x8 | x8 | x8 | x8 | x6[K:bass] (G,2 | ^G,2 A,2 F,2 ^^F,2) | B,,8 | B,,8 | B,8 | %160
 (^G,2 A,2 F,2 ^^F,2) | B,,8 | _B,,8 |[K:treble] _B,8 | x8 | x8 |[K:bass] x8 | x8 | x8 | x8 | x8 | %171
 x4[K:treble] x4 |[K:bass] x8 | x8 | x5[K:treble] x3 |[K:bass] x5[K:treble] x3 | x4[K:bass] x4 | %177
 A,,4 x4 | x8 | x8 | x8 | x8 |[K:treble] x8 | x8 | x8 | x8 |[K:bass] x8 | x8 | %188
 [G,,,G,,]8[K:treble] | x8 |[K:bass] [G,,,G,,]8[K:treble] | x8 |[K:bass] [=F,,,=F,,]8[K:treble] | %193
 x8 |[K:bass] [=F,,,=F,,]8 | x8 | x8 | x8 | x8 | x8 | x8 | x8 |[K:treble] D8 | D8 | x8 | %205
[K:bass] x8 | x4 D,4- | D,8 | x4 D,4- | D,4 C4 |[K:treble] x8 | x8 | x8 | x4[K:bass] x4 | x8 | x8 | %216
 x8 |] %217

